Carto/POI/SVG/bank_solid_24px.svg

<svg width="24" height="24" viewBox="0 0 24 24" fill="none" xmlns="http://www.w3.org/2000/svg">
<path d="M14 18.87V22H11V19.12C9.42394 19.009 7.93713 18.347 6.80005 17.25L8.18005 15.71C9.17406 16.6115 10.4681 17.1106 11.81 17.11C13.31 17.11 14.39 16.38 14.39 15.01C14.39 13.83 13.8 13.3 11.6 12.63C8.65005 11.72 7.37005 10.54 7.37005 8.4C7.37005 6.26 8.85005 5 11 4.64V2H14V4.75C15.044 4.99493 16.0059 5.50859 16.79 6.24L15.47 7.77C14.6026 6.99755 13.4816 6.57053 12.32 6.57C11.05 6.57 10.14 7.14 10.14 8.24C10.14 9.34 10.69 9.7 13.03 10.44C15.37 11.18 17.2 12.23 17.2 14.87C17.2037 15.8019 16.8882 16.7071 16.306 17.4348C15.7238 18.1625 14.9101 18.669 14 18.87Z" fill="#0F1621"/>
</svg>

<svg xmlns="http://www.w3.org/2000/svg" width="24" height="24" viewBox="0 0 24 24"><rect width="24" height="24" style="fill:none;opacity:0.11"/><path d="M14,18.87V22H11V19.12a6.73,6.73,0,0,1-4.2-1.87l1.38-1.54a5.4,5.4,0,0,0,3.63,1.4c1.5,0,2.58-.73,2.58-2.1,0-1.18-.59-1.71-2.79-2.38-2.95-.91-4.23-2.09-4.23-4.23S8.85,5,11,4.64V2h3V4.75a6.15,6.15,0,0,1,2.79,1.49L15.47,7.77a4.74,4.74,0,0,0-3.15-1.2c-1.27,0-2.18.57-2.18,1.67s.55,1.46,2.89,2.2,4.17,1.79,4.17,4.43A4.08,4.08,0,0,1,14,18.87Z"/></svg>
